images/ghavvamin.svg

<svg height="24" viewBox="0 0 24 24" width="24" xmlns="http://www.w3.org/2000/svg" xmlns:xlink="http://www.w3.org/1999/xlink"><clipPath id="a"><path d="m0 0h20v20h-20z"/></clipPath><path d="m0 0h24v24h-24z" fill="none"/><g clip-path="url(#a)" transform="translate(2 2)"><path d="m0 0h20v20h-20z" fill="none"/><path d="m7.575 20-3.408-3.091h11.133v-8.017a4.311 4.311 0 0 0 -4.319-3.02c-3.541.001-4.132 2.628-4.132 2.628s-.783-4.333 5.636-4.333 6.682 4.669 6.682 4.669v9.787s-.2 1.377-1.182 1.377zm-7.575-8.828v-9.794s.2-1.378 1.181-1.378h10.41l3.409 3.091h-11.129v8.016a4.311 4.311 0 0 0 4.319 3.02c3.536 0 4.127-2.627 4.127-2.627s.783 4.333-5.636 4.333-6.681-4.661-6.681-4.661z" fill="#007d3d" transform="translate(.417)"/><path d="m3.7 0a3.705 3.705 0 1 1 -3.7 3.7 3.7 3.7 0 0 1 3.7-3.7z" fill="#fff400" transform="translate(6.473 6.266)"/></g></svg>

<svg xmlns="http://www.w3.org/2000/svg" id="Component_132_1" width="24" height="24" viewBox="0 0 24 24">
    <defs>
        <clipPath id="clip-path">
            <path d="M0 0H20V20H0z" class="cls-1"/>
        </clipPath>
        <style>
            .cls-1{fill:none}
        </style>
    </defs>
    <path id="Rectangle_1289" d="M0 0H24V24H0z" class="cls-1"/>
    <g id="Bank_Ghavamin_Color" clip-path="url(#clip-path)" transform="translate(2 2)">
        <path id="Boundary" d="M0 0H20V20H0z" class="cls-1"/>
        <path id="Shape" fill="#007d3d" d="M7.575 20l-3.408-3.091H15.3V8.892a4.311 4.311 0 0 0-4.319-3.02C7.44 5.873 6.849 8.5 6.849 8.5s-.783-4.333 5.636-4.333 6.682 4.669 6.682 4.669v9.787S18.967 20 17.985 20zM0 11.172V1.378S.2 0 1.181 0h10.41L15 3.091H3.871v8.016a4.311 4.311 0 0 0 4.319 3.02c3.536 0 4.127-2.627 4.127-2.627s.783 4.333-5.636 4.333S0 11.172 0 11.172z" transform="translate(.417)"/>
        <path id="Shape-2" fill="#fff400" d="M3.7 0A3.705 3.705 0 1 1 0 3.7 3.7 3.7 0 0 1 3.7 0z" transform="translate(6.473 6.266)"/>
    </g>
</svg>
